dist/svg/u1F4BD.svg

<?xml version="1.0" encoding="UTF-8"?><svg id="a" xmlns="http://www.w3.org/2000/svg" viewBox="0 0 40 40"><rect width="40" height="40" fill="none"/><g><rect x="4" y="4" width="32" height="32" rx="2" ry="2" fill="#333d4b"/><g><path d="M21.489,17.874l6.594-9.417c-6.428-4.501-15.257-2.98-19.72,3.394l9.494,6.648c.822-1.174,2.448-1.454,3.632-.625Z" fill="#90bdf8"/><path d="M18.511,22.126l-6.594,9.417c6.428,4.501,15.257,2.98,19.72-3.394l-9.494-6.648c-.822,1.174-2.448,1.454-3.632,.625Z" fill="#90bdf8"/></g><g><path d="M17.856,18.499l-9.494-6.648c-3.001,4.286-3.254,9.672-1.15,14.112l10.441-4.869c-.387-.818-.349-1.806,.204-2.596Z" fill="#90bdf8"/><path d="M11.918,31.543l6.594-9.417c-.388-.272-.67-.633-.858-1.032l-10.441,4.869c1.025,2.163,2.6,4.105,4.706,5.58Z" fill="#c8e1ff"/><path d="M32.788,14.037l-10.441,4.869c.387,.818,.349,1.806-.204,2.596l9.494,6.648c3.001-4.286,3.254-9.672,1.15-14.112Z" fill="#90bdf8"/><path d="M28.082,8.457l-6.594,9.417c.388,.272,.67,.633,.858,1.032l10.441-4.869c-1.025-2.163-2.6-4.105-4.706-5.58Z" fill="#c8e1ff"/></g><path d="M22.47,16.569c-1.928-1.35-4.578-.893-5.916,1.018-1.338,1.911-.862,4.557,1.067,5.907,1.928,1.35,4.578,.893,5.916-1.018s.861-4.558-1.067-5.907Zm-3.394,4.848c-.771-.54-.963-1.598-.427-2.363s1.595-.947,2.366-.407,.963,1.598,.427,2.363c-.536,.765-1.595,.947-2.366,.407Z" fill="#495b73"/></g></svg>

<svg id="Layer_1" data-name="Layer 1" xmlns="http://www.w3.org/2000/svg" viewBox="0 0 40 40"><defs><style>.cls-1{fill:none;}.cls-2{fill:#333d4b;}.cls-3{fill:#90bdf8;}.cls-4{fill:#c8e1ff;}.cls-5{fill:#495b73;}</style></defs><rect class="cls-1" width="40" height="40"/><rect class="cls-2" x="4" y="4" width="32" height="32" rx="2"/><path class="cls-3" d="M21.489,17.874l6.593-9.417a14.151,14.151,0,0,0-19.72,3.394L17.856,18.5A2.607,2.607,0,0,1,21.489,17.874Z"/><path class="cls-3" d="M18.511,22.126l-6.593,9.417a14.151,14.151,0,0,0,19.72-3.394L22.144,21.5A2.607,2.607,0,0,1,18.511,22.126Z"/><path class="cls-3" d="M17.856,18.5,8.362,11.851a14.058,14.058,0,0,0-1.15,14.112L17.653,21.1A2.58,2.58,0,0,1,17.856,18.5Z"/><path class="cls-4" d="M11.918,31.543l6.593-9.417a2.6,2.6,0,0,1-.858-1.031L7.212,25.963A14.22,14.22,0,0,0,11.918,31.543Z"/><path class="cls-3" d="M32.788,14.037,22.347,18.905a2.58,2.58,0,0,1-.2,2.6l9.494,6.648A14.055,14.055,0,0,0,32.788,14.037Z"/><path class="cls-4" d="M28.082,8.457l-6.593,9.417a2.6,2.6,0,0,1,.858,1.031l10.441-4.868A14.22,14.22,0,0,0,28.082,8.457Z"/><path class="cls-5" d="M22.47,16.569a4.227,4.227,0,1,0,1.067,5.907A4.245,4.245,0,0,0,22.47,16.569Zm-3.395,4.848a1.691,1.691,0,1,1,2.367-.408A1.7,1.7,0,0,1,19.075,21.417Z"/></svg>
